X:1
T: The Jolly Butchers
C:
R:Reel
Q: 232
K:D
M:4/4
L:1/8
|:FE|DA, FD AF dA|Bg ed cb ag|fe dc Bg ec|((3cdc) ((3BcB) AG FE|
DA, FD AF dA|Bg ed cb ag|fe dc Bg ec|dc dc d2:|
|:fg|a^g af de f=g|af dd d2 ef|gf ge cd ef|((3gag) ((3fgf) ef ec|
df ec dD FA|Bg ed cb ag|fe dc Bg ec|dc dc d2:|
